X:1
T: Mrs. Forsyth of Mortlach's Strathspey
C:William Marshall
R:Strathspey
Q: 128
K:Am
M:4/4
L:1/16
|:A,E3 E3^F G4 G,3B,|A,E3 E3^F G3D G3B|c3A B3^F G4 G,2B,2|A,2A2 ^c2A2 B2^G2 A2c2|
A,E3 E3^F G4 G,3B,|A,E3 E3^F G3D G3B|c3A B3^F G4 G,2B,2|A,2A2 ^c2A2 B2^G2 A2e2|
^c2A2 cee2 B4 G2B2|^c2A2 cee2 c2A2 cee2|^c2A2 cee2 B4 G2B2|A2a2 ^g2b2 a2A2 ^c2e2|
^c2A2 cee2 B4 G2B2|c2A2 c2ee A^ce^f a2f2|((3g2b2g2) ((3^f2a2f2) g4 G2B2|A2a2 ^g2b2 a2A2 ^c2e2:|
